X: 116
T: Miss Lamont of Lamont's Strathspey
R: strathspey
Q: "Slow"
B: William Shepherd "1st Collection" 1793 p.11 #6
F: http://imslp.org/wiki/File:PMLP73094-Shepherd_Collections_HMT.pdf
C: William Shepherd (17??-1812)
Z: 2012 John Chambers <jc:trillian.mit.edu>
M: C
L: 1/16
K: G
D2 |\
TG3A B2G2 Tc3d e2c2 | TB3c edcB AGFE F2D2 |\
[1 TG3B E2FG A3c B,3C | A,3c BAGF G2D2G,2 :|
[2 B,3G C3A D3B E3c | A,cAF GDEC B,2G,2G,2 || d2 |\
Tg3a b3g f3g a3d | e2 (3efg B2 gf edcB Tc3A |\
g3a b3g f3g a3d |
B2ge fde^c d4 d2=cB |\
Tc3a A2Bc TB3g G2AB | Tc3E A3G F3E F3D |\
G3B E2FG A3c B,3C | A,cAF GDEC B,2G,2G,2 |]
